svg/calendar_cursor_outline.svg

<svg xmlns="http://www.w3.org/2000/svg" viewBox="0 0 24 24"><path d="M5 9h14v2.1l2 1.7V5c0-1.1-.9-2-2-2h-1V1h-2v2H8V1H6v2H5c-1.1 0-2 .9-2 2v14c0 1.1.9 2 2 2h8v-2H5zm14-4v2H5V5zM7 16v-5h5v5zm15.9 1.7c-.1.1-.2.2-.3.2l-1.9.4 1.3 2.8c.2.3 0 .6-.3.8l-2.1 1c-.2.1-.2.1-.3.1-.2 0-.4-.1-.5-.3l-1.3-2.8L16 21c-.1.1-.2.1-.4.1-.3 0-.6-.3-.6-.6v-9c0-.3.3-.6.6-.6.1 0 .3.1.4.1l6.8 5.8c.2.3.3.7.1.9"/></svg>

<svg xmlns="http://www.w3.org/2000/svg" id="mdi-calendar-cursor-outline" viewBox="0 0 24 24"><path d="M5 9H19V11.1L21 12.8V5C21 3.9 20.1 3 19 3H18V1H16V3H8V1H6V3H5C3.9 3 3 3.9 3 5V19C3 20.1 3.9 21 5 21H13V19H5V9M19 5V7H5V5H19M7 16V11H12V16H7M22.9 17.7C22.8 17.8 22.7 17.9 22.6 17.9L20.7 18.3L22 21.1C22.2 21.4 22 21.7 21.7 21.9L19.6 22.9C19.4 23 19.4 23 19.3 23C19.1 23 18.9 22.9 18.8 22.7L17.5 19.9L16 21C15.9 21.1 15.8 21.1 15.6 21.1C15.3 21.1 15 20.8 15 20.5V11.5C15 11.2 15.3 10.9 15.6 10.9C15.7 10.9 15.9 11 16 11L22.8 16.8C23 17.1 23.1 17.5 22.9 17.7Z" /></svg>
